X: 1
T: Koster Choad #1 (in G)
M: 4/4
L: 1/16
Z: John Chambers <jc@trillian.mit.edu>
Z: from Steve Gruverman's revision of Tom Pixton's transcription
K: G
|: "^G/D drone"BB \
| B3A G3B A3G A3B | c3B A3G d6 BB \
| B3A G3B A3G A3B | c3B A3B G6 :|
|: gg \
| g4 e3f e3d A4 | B3c d3e d3c B3G \
| A3B cdcB A3G B4 | A3G B3A G6 :|
